dist/images/svg/sprite/icon-instagram.svg

<svg width="25" height="24" viewBox="0 0 25 24" fill="none" xmlns="http://www.w3.org/2000/svg">
<g opacity="0.6" clip-path="url(#clip0_22_1458)">
<path d="M12.4968 7.9983C10.2933 7.9983 8.49515 9.79651 8.49515 12C8.49515 14.2035 10.2933 16.0017 12.4968 16.0017C14.7002 16.0017 16.4984 14.2035 16.4984 12C16.4984 9.79651 14.7002 7.9983 12.4968 7.9983ZM24.4987 12C24.4987 10.3429 24.5137 8.70077 24.4206 7.04665C24.3275 5.12536 23.8893 3.4202 22.4843 2.01525C21.0764 0.607302 19.3743 0.172008 17.453 0.0789456C15.7959 -0.0141173 14.1539 0.000892936 12.4998 0.000892936C10.8427 0.000892936 9.20061 -0.0141173 7.54652 0.0789456C5.62526 0.172008 3.92014 0.610305 2.51522 2.01525C1.10729 3.42321 0.672005 5.12536 0.578944 7.04665C0.485883 8.70377 0.500893 10.3459 0.500893 12C0.500893 13.6541 0.485883 15.2992 0.578944 16.9533C0.672005 18.8746 1.11029 20.5798 2.51522 21.9847C3.92314 23.3927 5.62526 23.828 7.54652 23.9211C9.20361 24.0141 10.8457 23.9991 12.4998 23.9991C14.1569 23.9991 15.7989 24.0141 17.453 23.9211C19.3743 23.828 21.0794 23.3897 22.4843 21.9847C23.8923 20.5768 24.3275 18.8746 24.4206 16.9533C24.5167 15.2992 24.4987 13.6571 24.4987 12ZM12.4968 18.1572C9.08954 18.1572 6.33973 15.4073 6.33973 12C6.33973 8.5927 9.08954 5.84284 12.4968 5.84284C15.904 5.84284 18.6538 8.5927 18.6538 12C18.6538 15.4073 15.904 18.1572 12.4968 18.1572ZM18.906 7.02864C18.1105 7.02864 17.468 6.38621 17.468 5.59067C17.468 4.79513 18.1105 4.1527 18.906 4.1527C19.7015 4.1527 20.3439 4.79513 20.3439 5.59067C20.3442 5.77957 20.3071 5.96667 20.235 6.14124C20.1628 6.31581 20.0569 6.47442 19.9233 6.608C19.7897 6.74157 19.6311 6.84748 19.4565 6.91967C19.282 6.99185 19.0949 7.02888 18.906 7.02864Z" fill="white"/>
</g>
<defs>
<clipPath id="clip0_22_1458">
<rect width="24" height="24" fill="white" transform="translate(0.5)"/>
</clipPath>
</defs>
</svg>

<svg width="25" height="24" fill="none" xmlns="http://www.w3.org/2000/svg"><g opacity=".6" clip-path="url(#a)"><path d="M12.497 7.998A4.01 4.01 0 0 0 8.495 12a4.01 4.01 0 0 0 4.002 4.002A4.01 4.01 0 0 0 16.498 12a4.01 4.01 0 0 0-4.001-4.002ZM24.499 12c0-1.657.015-3.3-.078-4.953-.093-1.922-.532-3.627-1.937-5.032C21.076.607 19.374.172 17.453.08 15.796-.014 14.153 0 12.5 0c-1.657 0-3.3-.015-4.953.078C5.625.172 3.92.61 2.515 2.015 1.107 3.423.672 5.125.58 7.047.486 8.704.5 10.346.5 12c0 1.654-.015 3.3.078 4.953.093 1.922.531 3.627 1.936 5.032 1.408 1.408 3.11 1.843 5.032 1.936 1.657.093 3.299.078 4.953.078 1.657 0 3.299.015 4.953-.078 1.921-.093 3.626-.531 5.031-1.936 1.408-1.408 1.843-3.11 1.937-5.032.096-1.654.078-3.296.078-4.953Zm-12.002 6.157A6.148 6.148 0 0 1 6.34 12a6.148 6.148 0 0 1 6.157-6.157A6.148 6.148 0 0 1 18.654 12a6.148 6.148 0 0 1-6.157 6.157ZM18.906 7.03a1.436 1.436 0 0 1-1.438-1.438c0-.796.642-1.438 1.438-1.438a1.436 1.436 0 0 1 1.329 1.988 1.436 1.436 0 0 1-1.329.888Z" fill="#fff"/></g><defs><clipPath id="a"><path fill="#fff" transform="translate(.5)" d="M0 0h24v24H0z"/></clipPath></defs></svg>
